Papirus/24x24/panel/stremio-tray.svg

<?xml version="1.0" encoding="UTF-8" standalone="no"?>
<svg xmlns:dc="http://purl.org/dc/elements/1.1/" xmlns:cc="http://creativecommons.org/ns#" xmlns:rdf="http://www.w3.org/1999/02/22-rdf-syntax-ns#" xmlns:svg="http://www.w3.org/2000/svg" xmlns="http://www.w3.org/2000/svg" version="1.1" id="svg4276" viewBox="0 0 24 24" height="24" width="24">
    <metadata id="metadata4281">
        <rdf:RDF>
            <cc:Work rdf:about="">
                <dc:format>
                    image/svg+xml
                </dc:format>
                <dc:type rdf:resource="http://purl.org/dc/dcmitype/StillImage"/>
                <dc:title/>
            </cc:Work>
        </rdf:RDF>
    </metadata>
    <g transform="translate(0,-1028.3622)" id="layer1">
        <path id="path4137" transform="translate(0,1028.3622)" d="M 12 4 C 11.740801 4 11.481814 4.1002281 11.283203 4.2988281 L 4.2988281 11.283203 C 3.9016045 11.680403 3.9016045 12.319597 4.2988281 12.716797 L 11.283203 19.701172 C 11.680426 20.098372 12.319574 20.098372 12.716797 19.701172 L 19.701172 12.716797 C 20.098395 12.319597 20.098395 11.680403 19.701172 11.283203 L 12.716797 4.2988281 C 12.518186 4.1002281 12.259199 4 12 4 z M 11.892578 8 C 12.623561 8 13.19349 8.1761437 13.601562 8.5273438 C 14.013184 8.8787438 14.21875 9.3462406 14.21875 9.9316406 C 14.21875 10.421441 14.074177 10.832109 13.783203 11.162109 C 13.49223 11.492109 13.076475 11.702722 12.537109 11.794922 L 12.537109 11.826172 C 13.818103 11.992972 14.458984 12.611588 14.458984 13.679688 C 14.458984 14.399987 14.214297 14.967613 13.724609 15.382812 C 13.234922 15.794412 12.527712 16 11.601562 16 C 10.742836 16 10.055542 15.860378 9.5410156 15.580078 L 9.5410156 14.673828 C 10.193932 15.014528 10.873935 15.185547 11.580078 15.185547 C 12.836232 15.185547 13.462891 14.673937 13.462891 13.648438 C 13.462891 12.732937 12.78751 12.273438 11.435547 12.273438 L 10.728516 12.273438 L 10.728516 11.470703 L 11.435547 11.470703 C 12.0033 11.470703 12.443595 11.336106 12.755859 11.066406 C 13.068123 10.796706 13.224609 10.439594 13.224609 9.9960938 C 13.224609 9.6341937 13.102623 9.3480719 12.861328 9.1386719 C 12.620033 8.9257719 12.297103 8.8203125 11.892578 8.8203125 C 11.260953 8.8203125 10.651544 9.0335906 10.0625 9.4628906 L 9.5722656 8.7988281 C 10.235828 8.2666281 11.009012 8 11.892578 8 z " style="opacity:1;fill:#ffffff;fill-opacity:1;stroke:none;stroke-width:2;stroke-linecap:round;stroke-linejoin:round;stroke-miterlimit:4;stroke-dasharray:none;stroke-opacity:1"/>
    </g>
</svg>

<?xml version="1.0" encoding="UTF-8" standalone="no"?>
<svg id="svg4276" xmlns:rdf="http://www.w3.org/1999/02/22-rdf-syntax-ns#" xmlns="http://www.w3.org/2000/svg" viewBox="0 0 24 24" width="24" version="1.1" xmlns:cc="http://creativecommons.org/ns#" height="24" xmlns:dc="http://purl.org/dc/elements/1.1/">
 <metadata id="metadata4281">
  <rdf:RDF>
   <cc:Work rdf:about="">
    <dc:format>image/svg+xml</dc:format>
    <dc:type rdf:resource="http://purl.org/dc/dcmitype/StillImage"/>
    <dc:title/>
   </cc:Work>
  </rdf:RDF>
 </metadata>
 <g id="layer1" transform="translate(0 -1028.4)">
  <path id="path4137" d="m12 4c-0.259 0-0.518 0.1002-0.717 0.2988l-6.9842 6.9842c-0.3972 0.397-0.3972 1.037 0 1.434l6.9842 6.984c0.397 0.397 1.037 0.397 1.434 0l6.984-6.984c0.397-0.397 0.397-1.037 0-1.434l-6.984-6.9842c-0.199-0.1986-0.458-0.2988-0.717-0.2988zm-0.107 4c0.731 0 1.3 0.1761 1.709 0.5273 0.411 0.3514 0.617 0.8189 0.617 1.4043 0 0.4894-0.145 0.9004-0.436 1.2304s-0.707 0.541-1.246 0.633v0.031c1.281 0.167 1.922 0.786 1.922 1.854 0 0.72-0.245 1.288-0.734 1.703-0.49 0.411-1.197 0.617-2.123 0.617-0.859 0-1.546-0.14-2.061-0.42v-0.906c0.653 0.341 1.333 0.512 2.039 0.512 1.256 0 1.883-0.512 1.883-1.538 0-0.915-0.675-1.375-2.027-1.375h-0.707v-0.802h0.707c0.567 0 1.008-0.135 1.32-0.405 0.312-0.269 0.469-0.626 0.469-1.0699 0-0.3619-0.122-0.648-0.364-0.8574-0.241-0.2129-0.564-0.3184-0.968-0.3184-0.632 0-1.241 0.2133-1.831 0.6426l-0.4897-0.6641c0.6637-0.5322 1.4367-0.7988 2.3207-0.7988z" transform="translate(0 1028.4)" fill="#fff"/>
 </g>
</svg>
